X:18912
T:Woodman,The. HSJJ.181
T:Blow The Wind Southerly. HSJJ.181
M:6/8
L:1/8
Q:60
S:HSJ Jackson,Wyresdale,Lancs.1823
R:Air
O:England
A:Lancashire
H:1823
Z:Chris Partington.
K:C
c/d/|e>dc G>EG|A>FA G>E c/e/|e>dc G>EG|AcBc2:|
|:g|e2gd2g|c>BcB2g|!e2gd2g|fefg2g|a2ag2g|f>gfe2d|e>dc|Gca|g2Bc2:|]


